X: 129
T: Willy Nilly
T: Merchant's Carol, The
M:6/8
L:1/8
K:Dm
|:A|"Dm"d2e f2^c |"Dm"d2d A2B |"A"A2G F2E |"Dm"D3 z2:|
|:F|"C"E2F G2A |"F"F2F "A"E2F|"Dm"D2E "Bb"F2G| "A"A3 z2^G|
A2=B ^c2A |"Dm"d2d "A"^c2f |"Gm"e2d "A"^c2f |"Dm"d3 z2:|


